X: 11216
T: Durang's
R: hornpipe
M: 4/4
K: Dmajor
|:A2|DAFA DAFA|BcdB BAFA|DAFA DAFA|A,DCD A,DCD|
DAFA DAFA|BcdB BAFA|fgaf bgec|d2d2d2:|
|:A2|defe dcBA|Bcdc BAGF|E2(gf) edcB|Acec dBAG|
AGAB cBcd|edef gfge|fgaf bgec|d2d2d2:|

